src/components/icon/img/megaphone.svg

<svg viewBox="0 0 50 50" xmlns="http://www.w3.org/2000/svg"><path d="m48 2.94a2.06 2.06 0 0 1 1.51.64 2 2 0 0 1 .64 1.51v33.15a2.17 2.17 0 0 1 -2.15 2.14h-3.66a2.46 2.46 0 0 1 -1.85-1.07 7.1 7.1 0 0 0 -2-2 27.49 27.49 0 0 0 -3.26-2c-2.8-1.36-5.32-2.52-7.56-3.46s-4.17-1.71-5.8-2.29c-1.88-.71-3.54-1.27-5-1.66l2.73 16.28a1.92 1.92 0 0 1 -.44 1.71 2.13 2.13 0 0 1 -1.71.73h-5.33a1.9 1.9 0 0 1 -1.95-1.36l-5.75-16.26a2.06 2.06 0 0 0 -1.42-1.29 7.17 7.17 0 0 1 -3.46-2 5.14 5.14 0 0 1 -1.36-3.66 6 6 0 0 1 2.1-4.82 7.39 7.39 0 0 1 5-1.81h9c.58 0 1.54-.06 2.87-.19a29.67 29.67 0 0 0 4.83-1 51.26 51.26 0 0 0 6.28-2.23 38.24 38.24 0 0 0 7.16-4.09q1.95-1.37 3.27-2.34a9.3 9.3 0 0 0 1.9-1.76 2 2 0 0 1 1.56-.88zm-29.1 15.41a6 6 0 0 1 -1.46.19h-10.14a4.84 4.84 0 0 0 -2.78.83 3 3 0 0 0 -1.22 2.68 4.34 4.34 0 0 0 .29 1.32c.2.55.91 1 2.15 1.32a4.59 4.59 0 0 1 2.19 1.17 5.75 5.75 0 0 1 1.41 2l5.46 15.64h3.51c-.65-3.57-1.2-6.76-1.65-9.55l-.59-3.51c-.19-1.17-.36-2.21-.49-3.12s-.29-1.95-.48-3.12c0-.07.45 0 1.36.14l2.44.44zm28.1-12.29h-2.27a12.29 12.29 0 0 1 -2.19 2.05c-.94.72-2.06 1.53-3.36 2.44a44.78 44.78 0 0 1 -9.41 5.07 45.54 45.54 0 0 1 -7.77 2.24v7.8q2.24.78 6.48 2.39t10.09 4.43a24.18 24.18 0 0 1 3.76 2.3 13.66 13.66 0 0 1 2.58 2.48h2z" fill="#1873b4"/></svg>

<svg id="Ebene_1" data-name="Ebene 1" xmlns="http://www.w3.org/2000/svg" viewBox="0 0 50 50"><defs><style>.cls-1{fill:#1873b4;}</style></defs><title>megaphone_50x50px-11_neu</title><path class="cls-1" d="M48,2.94a2.06,2.06,0,0,1,1.51.64,2,2,0,0,1,.64,1.51V38.24A2.17,2.17,0,0,1,48,40.38H44.34a2.46,2.46,0,0,1-1.85-1.07,7.1,7.1,0,0,0-2-2,27.49,27.49,0,0,0-3.26-2c-2.8-1.36-5.32-2.52-7.56-3.46s-4.17-1.71-5.8-2.29c-1.88-.71-3.54-1.27-5-1.66l2.73,16.28a1.92,1.92,0,0,1-.44,1.71,2.13,2.13,0,0,1-1.71.73H14.12a1.9,1.9,0,0,1-1.95-1.36L6.42,29A2.06,2.06,0,0,0,5,27.71a7.17,7.17,0,0,1-3.46-2A5.14,5.14,0,0,1,.18,22.05a6,6,0,0,1,2.1-4.82,7.39,7.39,0,0,1,5-1.81h9c.58,0,1.54-.06,2.87-.19a29.67,29.67,0,0,0,4.83-1A51.26,51.26,0,0,0,30.26,12a38.24,38.24,0,0,0,7.16-4.09q1.95-1.37,3.27-2.34a9.3,9.3,0,0,0,1.9-1.76,2,2,0,0,1,1.56-.88ZM18.9,18.35a6,6,0,0,1-1.46.19H7.3a4.84,4.84,0,0,0-2.78.83A3,3,0,0,0,3.3,22.05a4.34,4.34,0,0,0,.29,1.32c.2.55.91,1,2.15,1.32a4.59,4.59,0,0,1,2.19,1.17,5.75,5.75,0,0,1,1.41,2L14.8,43.5h3.51c-.65-3.57-1.2-6.76-1.65-9.55l-.59-3.51c-.19-1.17-.36-2.21-.49-3.12s-.29-1.95-.48-3.12c0-.07.45,0,1.36.14l2.44.44ZM47,6.06H44.73a12.29,12.29,0,0,1-2.19,2.05c-.94.72-2.06,1.53-3.36,2.44a44.78,44.78,0,0,1-9.41,5.07A45.54,45.54,0,0,1,22,17.86v7.8q2.24.78,6.48,2.39t10.09,4.43a24.18,24.18,0,0,1,3.76,2.3,13.66,13.66,0,0,1,2.58,2.48h2Z"/></svg>
